X:1
T:Valete, 88.88.88
T:Valete, 88.88.88
T:Arthur Seymour Sullivan, 1874
T:Public Domain Courtesy of the Cyber Hymnal™
C:Arthur Seymour Sullivan, 1874
Z:Public Domain
Z:Courtesy of the Cyber Hymnal™
%%score ( 1 2 ) ( 3 4 )
L:1/8
Q:1/4=107
M:4/4
K:Eb
V:1 treble 
V:2 treble 
V:3 bass 
V:4 bass 
V:1
 G2 | G2 [FB]2 E2 [DG]2 | C2 [A,D]2 x4 | [B,E]2 [B,E]2 x4 | [B,F]2 [DA]2 [EG]2 [Gc]2 | %5
 [FB]2 [F=A]2 [FB]2 [DF]2 | [DF]2 [EG]2 [FA]2 [Gc]2 | [GB]2 ([GB][FA]) [EG]3 [DF] | %8
 [EG]2 [G=A]2 [GB]2 ([Bd][Ac]) | [GB]2 [^F=A]2 G2 B2 | [Bf]2 [Bd]2 [Be]2 E2 | %11
 [FA]2 [EA]2 [DG]2 [DG]2 | [=EG]2 [Ec]2 (BA) (GF) | [B,E]2 [DF]2 E2 |] %14
V:2
 G2 | G2 E2 x4 | C2 x6 | x8 | x8 | x8 | x8 | x8 | x8 | x4 G2 B2 | x6 E2 | x8 | x4 C2 C2 | x4 E2 |] %14
V:3
 [E,E]2 | [E,E]2 z E, [E,C]2 [E,B,]2 | [E,A,]2 [E,F,]2 [E,G,]2 [E,G,]2 | %3
 [D,F,]2 [B,,B,]2 [E,B,]2 [E,C]2 | [F,D]2 [F,E]2 [B,,D]2 B,2 | [A,B,]2 [G,B,]2 [F,A,]2 [E,G,]2 | %6
 [D,F,]2 [D,B,]2 [E,B,]3 [B,,B,] | [E,B,]2 [E,C]2 [D,D]2 [C,E]2 | [D,D]2 [D,C]2 [G,B,]2 B,2 | %9
 [A,D]2 [A,F]2 [G,E]2 [G,E]2 | [F,D]2 [F,C]2 [G,=B,]2 [G,B,]2 | [C,C]2 [C,G,]2 F,2 (B,A,) | %12
 [B,,G,]2 [B,,A,]2 [E,G,]2 x2 | x6 |] %14
V:4
 x2 | x2 D2 x4 | x8 | x8 | x6 B,2 | x8 | x8 | x8 | x6 B,2 | x8 | x8 | x4 F,2 A,,2 | x8 | x6 |] %14

